; generated by PrusaSlicer 2.3.3+win64 on 2021-10-09 at 01:23:54 UTC


;
;

;
;
; 

; external perimeters extrusion width = 0.45mm
; perimeters extrusion width = 0.45mm
; infill extrusion width = 0.45mm
; solid infill extrusion width = 0.45mm
; top infill extrusion width = 0.40mm
; support material extrusion width = 0.35mm
; first layer extrusion width = 0.42mm

M73 P0 R116
M201 X1250 Y1250 Z400 E5000 ; sets maximum accelerations, mm/sec^2
M203 X180 Y180 Z12 E80 ; sets maximum feedrates, mm/sec
M204 P1250 R1250 T1250 ; sets acceleration (P, T) and retract acceleration (R), mm/sec^2
M205 X8.00 Y8.00 Z2.00 E10.00 ; sets the jerk limits, mm/sec
M205 S0 T0 ; sets the minimum extruding and travel feed rate, mm/sec
M107
;TYPE:Custom
G90 ; use absolute coordinates
M83 ; extruder relative mode
M104 S170 ; set extruder temp for bed leveling
M140 S60 ; set bed temp
M109 R170 ; wait for bed leveling temp
M190 S60 ; wait for bed temp
G28 ; home all without mesh bed level
G29 ; mesh bed leveling 
M104 S215 ; set extruder temp
G92 E0.0
G1 Y-2.0 X179 F2400
G1 Z3 F720
M109 S215 ; wait for extruder temp

; intro line
G1 X170 F1000
G1 Z0.2 F720
G1 X110.0 E8.0 F900
G1 X40.0 E10.0 F700
G92 E0.0

M221 S95 ; set flow
G21 ; set units to millimeters
G90 ; use absolute coordinates
M83 ; use relative distances for extrusion
M900 K0.2 ; Filament gcode LA 1.5
; ; Filament gcode LA 1.0
;LAYER_CHANGE
;Z:0.2
;HEIGHT:0.2
;BEFORE_LAYER_CHANGE
G92 E0.0
;0.2


G1 E-3.20000 F4200.000
G1 Z0.200 F7200.000
;AFTER_LAYER_CHANGE
;0.2
G1 Z0.400
G1 X48.828 Y80.348
G1 Z0.200
G1 E3.20000 F2400.000
M204 S800
;TYPE:Skirt
;WIDTH:0.42
G1 F1200.000
G1 X49.521 Y80.078 E0.02331
G1 X50.027 Y80.022 E0.01597
G1 X129.974 Y80.022 E2.50669
G1 X130.869 Y80.199 E0.02860
G1 X131.632 Y80.699 E0.02860
G1 X132.150 Y81.450 E0.02860
G1 X132.347 Y82.341 E0.02860
G1 X132.334 Y98.020 E0.49160
G1 X132.143 Y98.735 E0.02319
G1 X131.741 Y99.356 E0.02319
G1 X131.168 Y99.824 E0.02319
G1 X130.479 Y100.092 E0.02319
G1 X129.969 Y100.147 E0.01609
G1 X49.971 Y99.977 E2.50827
G1 X49.197 Y99.827 E0.02473
G1 X48.517 Y99.435 E0.02461
G1 X48.001 Y98.839 E0.02473
G1 X47.708 Y98.111 E0.02461
G1 X47.653 Y97.619 E0.01550
G1 X47.623 Y87.307 E0.32335
G1 X47.664 Y82.161 E0.16134
G1 X47.852 Y81.446 E0.02319
G1 X48.253 Y80.820 E0.02331
G1 X48.782 Y80.386 E0.02143
M204 S1250
; printing object _LCD16x2.95a6d64c-569f-4e85-b235-adfaccf3915b v1.stl id:0 copy 0
G1 E-2.24000 F4200.000
;WIPE_START
G1 F5760.000
G1 X49.521 Y80.078 E-0.55471
G1 X50.027 Y80.022 E-0.35288
G1 X50.033 Y80.022 E-0.00441
;WIPE_END
G1 E-0.04800 F4200.000
G1 Z0.400 F7200.000
G1 X50.030 Y85.411
G1 Z0.200
G1 E3.20000 F2400.000
M204 S800
;TYPE:Support material
G1 F1200.000
G1 X50.030 Y82.399 E0.09443
G1 X50.784 Y82.399 E0.02365
G1 X50.784 Y85.241 E0.08911
G1 X51.538 Y85.241 E0.02365
G1 X51.538 Y82.399 E0.08911
G1 X52.292 Y82.399 E0.02365
G1 X52.292 Y85.241 E0.08911
G1 X53.046 Y85.241 E0.02365
G1 X53.046 Y82.399 E0.08911
G1 X53.800 Y82.399 E0.02365
G1 X53.800 Y85.241 E0.08911
G1 X54.555 Y85.241 E0.02365
G1 X54.555 Y82.399 E0.08911
G1 X55.309 Y82.399 E0.02365
G1 X55.309 Y85.241 E0.08911
G1 X56.063 Y85.241 E0.02365
G1 X56.063 Y82.399 E0.08911
G1 X56.817 Y82.399 E0.02365
G1 X56.817 Y85.241 E0.08911
G1 X57.571 Y85.241 E0.02365
G1 X57.571 Y82.399 E0.08911
G1 X58.325 Y82.399 E0.02365
G1 X58.325 Y85.241 E0.08911
G1 X59.079 Y85.241 E0.02365
G1 X59.079 Y82.399 E0.08911
G1 X59.834 Y82.399 E0.02365
G1 X59.834 Y85.241 E0.08911
G1 X60.588 Y85.241 E0.02365
G1 X60.588 Y82.399 E0.08911
G1 X61.342 Y82.399 E0.02365
G1 X61.342 Y85.241 E0.08911
G1 X62.096 Y85.241 E0.02365
G1 X62.096 Y82.399 E0.08911
G1 X62.850 Y82.399 E0.02365
G1 X62.850 Y85.411 E0.09443
M204 S1250
G1 E-2.24000 F4200.000
;WIPE_START
G1 F5760.000
G1 X62.850 Y84.095 E-0.91200
;WIPE_END
G1 E-0.04800 F4200.000
G1 Z0.400 F7200.000
G1 X50.030 Y87.589
G1 Z0.200
G1 E3.20000 F2400.000
M204 S800
G1 F1200.000
G1 X50.030 Y97.601 E0.31391
G1 X50.784 Y97.601 E0.02365
G1 X50.784 Y87.759 E0.30859
G1 X51.538 Y87.759 E0.02365
G1 X51.538 Y97.601 E0.30859
G1 X52.292 Y97.601 E0.02365
G1 X52.292 Y87.759 E0.30859
G1 X53.046 Y87.759 E0.02365
G1 X53.046 Y97.601 E0.30859
G1 X53.800 Y97.601 E0.02365
G1 X53.800 Y87.759 E0.30859
G1 X54.555 Y87.759 E0.02365
G1 X54.555 Y97.601 E0.30859
G1 X55.309 Y97.601 E0.02365
G1 X55.309 Y87.759 E0.30859
G1 X56.063 Y87.759 E0.02365
G1 X56.063 Y97.601 E0.30859
G1 X56.817 Y97.601 E0.02365
G1 X56.817 Y87.759 E0.30859
G1 X57.571 Y87.769 E0.02365
G1 X57.571 Y97.601 E0.30828
G1 X58.325 Y97.601 E0.02365
G1 X58.325 Y87.769 E0.30828
G1 X58.900 Y87.759 E0.01802
G1 X59.079 Y87.759 E0.00563
G1 X59.079 Y97.601 E0.30859
G1 X59.834 Y97.601 E0.02365
G1 X59.834 Y87.769 E0.30828
G1 X60.588 Y87.769 E0.02365
G1 X60.588 Y97.601 E0.30828
G1 X61.342 Y97.601 E0.02365
G1 X61.342 Y87.769 E0.30828
G1 X62.096 Y87.759 E0.02365
G1 X62.096 Y97.601 E0.30859
G1 X62.850 Y97.601 E0.02365
G1 X62.850 Y87.769 E0.30828
G1 X63.604 Y87.769 E0.02365
G1 X63.604 Y97.601 E0.30828
G1 X64.359 Y97.601 E0.02365
G1 X64.359 Y87.759 E0.30859
G1 X65.113 Y87.769 E0.02365
G1 X65.113 Y97.601 E0.30828
G1 X65.867 Y97.601 E0.02365
G1 X65.867 Y87.769 E0.30828
G1 X66.520 Y87.759 E0.02048
G1 X66.621 Y87.759 E0.00317
G1 X66.621 Y97.601 E0.30859
G1 X67.375 Y97.601 E0.02365
G1 X67.375 Y87.769 E0.30828
G1 X68.129 Y87.769 E0.02365
G1 X68.129 Y97.601 E0.30828
G1 X68.884 Y97.601 E0.02365
G1 X68.884 Y87.769 E0.30828
G1 X69.060 Y87.759 E0.00554
G1 X69.638 Y87.759 E0.01812
G1 X69.638 Y97.601 E0.30859
G1 X70.392 Y97.601 E0.02365
G1 X70.392 Y87.769 E0.30828
G1 X71.146 Y87.769 E0.02365
G1 X71.146 Y97.601 E0.30828
G1 X71.900 Y97.601 E0.02365
G1 X71.900 Y87.759 E0.30859
G1 X72.340 Y87.759 E0.01379
G1 X72.654 Y87.769 E0.00986
G1 X72.654 Y97.601 E0.30828
G1 X73.409 Y97.601 E0.02365
G1 X73.409 Y87.769 E0.30828
G1 X74.163 Y87.759 E0.02365
G1 X74.163 Y97.601 E0.30859
G1 X74.917 Y97.601 E0.02365
G1 X74.917 Y87.769 E0.30828
G1 X75.671 Y87.769 E0.02365
G1 X75.671 Y97.601 E0.30828
G1 X76.425 Y97.601 E0.02365
G1 X76.425 Y87.769 E0.30828
G1 X76.680 Y87.759 E0.00800
G1 X77.179 Y87.759 E0.01566
G1 X77.179 Y97.601 E0.30859
G1 X77.933 Y97.601 E0.02365
G1 X77.933 Y87.769 E0.30828
G1 X78.688 Y87.769 E0.02365
G1 X78.688 Y97.601 E0.30828
G1 X79.442 Y97.601 E0.02365
G1 X79.442 Y87.759 E0.30859
G1 X80.196 Y87.769 E0.02365
G1 X80.196 Y97.601 E0.30828
M73 P0 R115
G1 X80.950 Y97.601 E0.02365
G1 X80.950 Y87.769 E0.30828
G1 X81.704 Y87.769 E0.02365
G1 X81.704 Y97.601 E0.30828
G1 X82.458 Y97.601 E0.02365
G1 X82.458 Y87.759 E0.30859
G1 X83.213 Y87.769 E0.02365
G1 X83.213 Y97.601 E0.30828
G1 X83.967 Y97.601 E0.02365
G1 X83.967 Y87.769 E0.30828
G1 X84.721 Y87.759 E0.02365
G1 X84.721 Y97.601 E0.30859
G1 X85.475 Y97.601 E0.02365
G1 X85.475 Y87.769 E0.30828
G1 X86.229 Y87.769 E0.02365
G1 X86.229 Y97.601 E0.30828
G1 X86.983 Y97.601 E0.02365
G1 X86.983 Y87.759 E0.30859
G1 X87.738 Y87.769 E0.02365
G1 X87.738 Y97.601 E0.30828
G1 X88.492 Y97.601 E0.02365
G1 X88.492 Y87.769 E0.30828
G1 X89.246 Y87.769 E0.02365
G1 X89.246 Y97.601 E0.30828
G1 X90.000 Y97.601 E0.02365
G1 X90.000 Y87.759 E0.30859
G1 X90.754 Y87.769 E0.02365
G1 X90.754 Y97.601 E0.30828
G1 X91.508 Y97.601 E0.02365
G1 X91.508 Y87.769 E0.30828
G1 X91.920 Y87.759 E0.01291
G1 X92.262 Y87.759 E0.01074
G1 X92.262 Y97.601 E0.30859
G1 X93.017 Y97.601 E0.02365
G1 X93.017 Y87.769 E0.30828
G1 X93.771 Y87.769 E0.02365
G1 X93.771 Y97.601 E0.30828
G1 X94.525 Y97.601 E0.02365
G1 X94.525 Y87.759 E0.30859
G1 X95.279 Y87.769 E0.02365
G1 X95.279 Y97.601 E0.30828
G1 X96.033 Y97.601 E0.02365
G1 X96.033 Y87.769 E0.30828
G1 X96.787 Y87.769 E0.02365
G1 X96.787 Y97.601 E0.30828
G1 X97.542 Y97.601 E0.02365
G1 X97.542 Y87.759 E0.30859
G1 X98.296 Y87.759 E0.02365
G1 X98.296 Y97.601 E0.30859
G1 X99.050 Y97.601 E0.02365
G1 X99.050 Y87.759 E0.30859
G1 X99.804 Y87.759 E0.02365
G1 X99.804 Y97.601 E0.30859
G1 X100.558 Y97.601 E0.02365
G1 X100.558 Y87.759 E0.30859
G1 X101.312 Y87.759 E0.02365
G1 X101.312 Y97.601 E0.30859
G1 X102.067 Y97.601 E0.02365
G1 X102.067 Y87.759 E0.30859
G1 X102.821 Y87.759 E0.02365
G1 X102.821 Y97.601 E0.30859
M73 P1 R115
G1 X103.575 Y97.601 E0.02365
G1 X103.575 Y87.759 E0.30859
G1 X104.329 Y87.759 E0.02365
G1 X104.329 Y97.601 E0.30859
G1 X105.083 Y97.601 E0.02365
G1 X105.083 Y87.759 E0.30859
G1 X105.837 Y87.759 E0.02365
G1 X105.837 Y97.601 E0.30859
G1 X106.591 Y97.601 E0.02365
G1 X106.591 Y87.759 E0.30859
G1 X107.346 Y87.759 E0.02365
G1 X107.346 Y97.601 E0.30859
G1 X108.100 Y97.601 E0.02365
G1 X108.100 Y87.759 E0.30859
G1 X108.854 Y87.759 E0.02365
G1 X108.854 Y97.601 E0.30859
G1 X109.608 Y97.601 E0.02365
G1 X109.608 Y87.759 E0.30859
G1 X110.362 Y87.759 E0.02365
G1 X110.362 Y97.601 E0.30859
G1 X111.116 Y97.601 E0.02365
G1 X111.116 Y87.759 E0.30859
G1 X111.871 Y87.759 E0.02365
G1 X111.871 Y97.601 E0.30859
G1 X112.625 Y97.601 E0.02365
G1 X112.625 Y87.759 E0.30859
G1 X113.379 Y87.759 E0.02365
G1 X113.379 Y97.601 E0.30859
G1 X114.133 Y97.601 E0.02365
G1 X114.133 Y87.759 E0.30859
G1 X114.887 Y87.759 E0.02365
G1 X114.887 Y97.601 E0.30859
G1 X115.641 Y97.601 E0.02365
G1 X115.641 Y87.759 E0.30859
G1 X116.396 Y87.759 E0.02365
G1 X116.396 Y97.601 E0.30859
G1 X117.150 Y97.601 E0.02365
G1 X117.150 Y87.759 E0.30859
G1 X117.904 Y87.759 E0.02365
G1 X117.904 Y97.601 E0.30859
G1 X118.658 Y97.601 E0.02365
G1 X118.658 Y87.759 E0.30859
G1 X119.412 Y87.759 E0.02365
G1 X119.412 Y97.601 E0.30859
G1 X120.166 Y97.601 E0.02365
G1 X120.166 Y87.759 E0.30859
G1 X120.921 Y87.759 E0.02365
G1 X120.921 Y97.601 E0.30859
G1 X121.675 Y97.601 E0.02365
G1 X121.675 Y87.759 E0.30859
G1 X122.429 Y87.759 E0.02365
G1 X122.429 Y97.601 E0.30859
G1 X123.183 Y97.601 E0.02365
G1 X123.183 Y87.759 E0.30859
G1 X123.937 Y87.759 E0.02365
G1 X123.937 Y97.601 E0.30859
G1 X124.691 Y97.601 E0.02365
G1 X124.691 Y87.759 E0.30859
G1 X125.445 Y87.759 E0.02365
G1 X125.445 Y97.601 E0.30859
G1 X126.200 Y97.601 E0.02365
G1 X126.200 Y87.759 E0.30859
G1 X126.954 Y87.759 E0.02365
G1 X126.954 Y97.601 E0.30859
G1 X127.708 Y97.601 E0.02365
G1 X127.708 Y87.759 E0.30859
G1 X128.462 Y87.759 E0.02365
G1 X128.462 Y97.601 E0.30859
G1 X129.216 Y97.601 E0.02365
G1 X129.216 Y87.759 E0.30859
G1 X129.970 Y87.759 E0.02365
G1 X129.970 Y97.770 E0.31391
M204 S1250
G1 E-2.24000 F4200.000
;WIPE_START
G1 F5760.000
G1 X129.970 Y96.454 E-0.91200
;WIPE_END
G1 E-0.04800 F4200.000
G1 Z0.400 F7200.000
G1 X129.970 Y85.411
G1 Z0.200
G1 E3.20000 F2400.000
M204 S800
G1 F1200.000
G1 X129.970 Y82.399 E0.09443
G1 X129.216 Y82.399 E0.02365
G1 X129.216 Y85.241 E0.08911
G1 X128.462 Y85.241 E0.02365
G1 X128.462 Y82.399 E0.08911
G1 X127.708 Y82.399 E0.02365
G1 X127.708 Y85.241 E0.08911
G1 X126.954 Y85.241 E0.02365
G1 X126.954 Y82.399 E0.08911
G1 X126.200 Y82.399 E0.02365
G1 X126.200 Y85.241 E0.08911
G1 X125.445 Y85.241 E0.02365
G1 X125.445 Y82.399 E0.08911
G1 X124.691 Y82.399 E0.02365
G1 X124.691 Y85.241 E0.08911
G1 X123.937 Y85.241 E0.02365
G1 X123.937 Y82.399 E0.08911
G1 X123.183 Y82.399 E0.02365
G1 X123.183 Y85.241 E0.08911
G1 X122.429 Y85.241 E0.02365
G1 X122.429 Y82.399 E0.08911
G1 X121.675 Y82.399 E0.02365
G1 X121.675 Y85.241 E0.08911
G1 X120.921 Y85.241 E0.02365
G1 X120.921 Y82.399 E0.08911
G1 X120.166 Y82.399 E0.02365
G1 X120.166 Y85.241 E0.08911
G1 X119.412 Y85.241 E0.02365
G1 X119.412 Y82.399 E0.08911
G1 X118.658 Y82.399 E0.02365
G1 X118.658 Y85.241 E0.08911
G1 X117.904 Y85.241 E0.02365
G1 X117.904 Y82.399 E0.08911
G1 X117.150 Y82.399 E0.02365
G1 X117.150 Y85.411 E0.09443
M204 S1250
G1 E-2.24000 F4200.000
;WIPE_START
G1 F5760.000
G1 X117.150 Y84.095 E-0.91200
;WIPE_END
G1 E-0.04800 F4200.000
G1 Z0.400 F7200.000
G1 X129.213 Y86.487
G1 Z0.200
G1 E3.20000 F2400.000
M204 S800
;TYPE:Perimeter
G1 F1200.000
G1 X129.213 Y86.513 E0.00081
G1 X50.787 Y86.513 E2.45899
G1 X50.787 Y86.487 E0.00081
G1 X129.153 Y86.487 E2.45711
M204 S1250
G1 X129.590 Y86.110 F7200.000
M204 S800
;TYPE:External perimeter
G1 F1200.000
G1 X129.590 Y86.890 E0.02446
G1 X50.410 Y86.890 E2.48263
G1 X50.410 Y86.110 E0.02446
G1 X129.530 Y86.110 E2.48075
M204 S1250
G1 X129.391 Y86.457 F7200.000
; stop printing object _LCD16x2.95a6d64c-569f-4e85-b235-adfaccf3915b v1.stl id:0 copy 0
M106 S84.15
;LAYER_CHANGE
;Z:0.36
;HEIGHT:0.16
;BEFORE_LAYER_CHANGE
G92 E0.0
;0.36


G1 E-2.24000 F4200.000
;WIPE_START
G1 F5760.000
G1 X129.590 Y86.890 E-0.54191
G1 X129.056 Y86.890 E-0.37009
;WIPE_END
G1 E-0.04800 F4200.000
G1 Z0.400 F7200.000
;AFTER_LAYER_CHANGE
;0.36
G1 X132.150 Y81.450
G1 Z0.360
G1 E3.20000 F2400.000
;TYPE:Skirt
G1 X132.347 Y82.341 E0.02340
G1 X132.334 Y98.020 E0.40224
G1 X132.143 Y98.735 E0.01898
G1 X131.741 Y99.356 E0.01898
G1 X131.168 Y99.824 E0.01898
G1 X130.479 Y100.092 E0.01898
G1 X129.969 Y100.147 E0.01317
G1 X49.971 Y99.977 E2.05229
G1 X49.197 Y99.827 E0.02023
G1 X48.517 Y99.435 E0.02014
G1 X48.001 Y98.839 E0.02023
G1 X47.708 Y98.111 E0.02014
G1 X47.653 Y97.619 E0.01268
G1 X47.623 Y87.307 E0.26456
G1 X47.664 Y82.161 E0.13201
G1 X47.852 Y81.446 E0.01898
M73 P1 R114
G1 X48.253 Y80.820 E0.01907
G1 X48.828 Y80.348 E0.01907
G1 X49.521 Y80.078 E0.01907
G1 X50.027 Y80.022 E0.01307
G1 X129.974 Y80.022 E2.05100
G1 X130.869 Y80.199 E0.02340
G1 X131.632 Y80.699 E0.02340
G1 X132.116 Y81.401 E0.02186
; printing object _LCD16x2.95a6d64c-569f-4e85-b235-adfaccf3915b v1.stl id:0 copy 0
G1 E-2.24000 F4200.000
;WIPE_START
G1 F5760.000
G1 X132.347 Y82.341 E-0.67063
G1 X132.347 Y82.690 E-0.24137
;WIPE_END
G1 E-0.04800 F4200.000
G1 Z0.560 F7200.000
G1 X129.359 Y86.341
G1 Z0.360
G1 E3.20000 F2400.000
M204 S800
;TYPE:Perimeter
;WIDTH:0.45
G1 F2100.000
G1 X129.359 Y86.659 E0.00881
G1 X50.641 Y86.659 E2.17658
G1 X50.641 Y86.341 E0.00881
G1 X129.299 Y86.341 E2.17492
M204 S1250
G1 X129.775 Y85.925 F7200.000
M204 S800
;TYPE:External perimeter
G1 F1500.000
G1 X129.775 Y87.075 E0.03180
G1 X50.225 Y87.075 E2.19956
G1 X50.225 Y85.925 E0.03180
G1 X129.715 Y85.925 E2.19790
M204 S1250
G1 X129.577 Y86.272 F7200.000
; stop printing object _LCD16x2.95a6d64c-569f-4e85-b235-adfaccf3915b v1.stl id:0 copy 0
;LAYER_CHANGE
;Z:0.445449
;HEIGHT:0.0854494
;BEFORE_LAYER_CHANGE
G92 E0.0
;0.445449


G1 E-2.24000 F4200.000
;WIPE_START
G1 F5760.000
G1 X129.775 Y87.075 E-0.79770
G1 X129.610 Y87.075 E-0.11430
;WIPE_END
G1 E-0.04800 F4200.000
G1 Z0.560 F7200.000
;AFTER_LAYER_CHANGE
;0.445449
; printing object _LCD16x2.95a6d64c-569f-4e85-b235-adfaccf3915b v1.stl id:0 copy 0
G1 X52.807 Y94.631
G1 Z0.445
G1 E3.20000 F2400.000
;TYPE:Support material
;WIDTH:0.35
;HEIGHT:0.245449
G1 F973
G1 X127.051 Y94.631 E2.25261
G1 X127.051 Y92.316 E0.07026
G1 X52.949 Y92.316 E2.24830
G1 X52.949 Y90.000 E0.07026
G1 X127.193 Y90.000 E2.25261
; stop printing object _LCD16x2.95a6d64c-569f-4e85-b235-adfaccf3915b v1.stl id:0 copy 0
M106 S170.85
;LAYER_CHANGE
;Z:0.52
;HEIGHT:0.0745506
;BEFORE_LAYER_CHANGE
G92 E0.0
;0.52


M73 P2 R114
G1 E-2.24000 F4200.000
;WIPE_START
G1 F5760.000
G1 X125.876 Y90.000 E-0.91200
;WIPE_END
G1 E-0.04800 F4200.000
G1 Z0.645 F7200.000
;AFTER_LAYER_CHANGE
;0.52
G1 X132.150 Y81.450
G1 Z0.520
G1 E3.20000 F2400.000
;TYPE:Skirt
;WIDTH:0.42
;HEIGHT:0.16
G1 X132.347 Y82.341 E0.02340
G1 X132.334 Y98.020 E0.40224
G1 X132.143 Y98.735 E0.01898
G1 X131.741 Y99.356 E0.01898
G1 X131.168 Y99.824 E0.01898
G1 X130.479 Y100.092 E0.01898
G1 X129.969 Y100.147 E0.01317
G1 X49.971 Y99.977 E2.05229
G1 X49.197 Y99.827 E0.02023
G1 X48.517 Y99.435 E0.02014
G1 X48.001 Y98.839 E0.02023
G1 X47.708 Y98.111 E0.02014
G1 X47.653 Y97.619 E0.01268
G1 X47.623 Y87.307 E0.26456
G1 X47.664 Y82.161 E0.13201
G1 X47.852 Y81.446 E0.01898
G1 X48.253 Y80.820 E0.01907
G1 X48.828 Y80.348 E0.01907
G1 X49.521 Y80.078 E0.01907
G1 X50.027 Y80.022 E0.01307
G1 X129.974 Y80.022 E2.05100
G1 X130.869 Y80.199 E0.02340
G1 X131.632 Y80.699 E0.02340
G1 X132.116 Y81.401 E0.02186
; printing object _LCD16x2.95a6d64c-569f-4e85-b235-adfaccf3915b v1.stl id:0 copy 0
G1 E-2.24000 F4200.000
;WIPE_START
G1 F5760.000
G1 X132.347 Y82.341 E-0.67063
G1 X132.347 Y82.690 E-0.24137
;WIPE_END
G1 E-0.04800 F4200.000
G1 Z0.720 F7200.000
G1 X129.359 Y86.341
G1 Z0.520
G1 E3.20000 F2400.000
M204 S800
;TYPE:Perimeter
;WIDTH:0.45
G1 F2100.000
G1 X129.359 Y86.659 E0.00881
G1 X50.641 Y86.659 E2.17658
