; generated by PrusaSlicer 2.3.3+win64 on 2021-10-09 at 01:18:14 UTC


;
;

;
;
; 

; external perimeters extrusion width = 0.45mm
; perimeters extrusion width = 0.45mm
; infill extrusion width = 0.45mm
; solid infill extrusion width = 0.45mm
; top infill extrusion width = 0.40mm
; support material extrusion width = 0.35mm
; first layer extrusion width = 0.42mm

M73 P0 R72
M201 X1250 Y1250 Z400 E5000 ; sets maximum accelerations, mm/sec^2
M203 X180 Y180 Z12 E80 ; sets maximum feedrates, mm/sec
M204 P1250 R1250 T1250 ; sets acceleration (P, T) and retract acceleration (R), mm/sec^2
M205 X8.00 Y8.00 Z2.00 E10.00 ; sets the jerk limits, mm/sec
M205 S0 T0 ; sets the minimum extruding and travel feed rate, mm/sec
M107
;TYPE:Custom
G90 ; use absolute coordinates
M83 ; extruder relative mode
M104 S170 ; set extruder temp for bed leveling
M140 S60 ; set bed temp
M109 R170 ; wait for bed leveling temp
M190 S60 ; wait for bed temp
G28 ; home all without mesh bed level
G29 ; mesh bed leveling 
M104 S215 ; set extruder temp
G92 E0.0
G1 Y-2.0 X179 F2400
G1 Z3 F720
M109 S215 ; wait for extruder temp

; intro line
G1 X170 F1000
G1 Z0.2 F720
G1 X110.0 E8.0 F900
G1 X40.0 E10.0 F700
G92 E0.0

M221 S95 ; set flow
G21 ; set units to millimeters
G90 ; use absolute coordinates
M83 ; use relative distances for extrusion
M900 K0.2 ; Filament gcode LA 1.5
; ; Filament gcode LA 1.0
;LAYER_CHANGE
;Z:0.2
;HEIGHT:0.2
;BEFORE_LAYER_CHANGE
G92 E0.0
;0.2


G1 E-3.20000 F4200.000
G1 Z0.200 F7200.000
;AFTER_LAYER_CHANGE
;0.2
G1 Z0.400
G1 X42.507 Y59.298
G1 Z0.200
G1 E3.20000 F2400.000
M204 S800
;TYPE:Skirt
;WIDTH:0.42
G1 F1200.000
G1 X43.226 Y59.181 E0.02284
G1 X126.202 Y59.012 E2.60168
G1 X137.141 Y59.212 E0.34303
G1 X137.827 Y59.435 E0.02260
G1 X138.414 Y59.853 E0.02260
G1 X138.849 Y60.428 E0.02260
G1 X139.092 Y61.107 E0.02260
G1 X139.135 Y118.649 E1.80420
G1 X139.061 Y119.199 E0.01740
G1 X138.864 Y119.714 E0.01728
G1 X138.553 Y120.169 E0.01728
G1 X138.146 Y120.541 E0.01728
G1 X137.493 Y120.872 E0.02296
G1 X136.770 Y120.988 E0.02296
G1 X43.231 Y120.988 E2.93287
G1 X42.676 Y120.920 E0.01752
G1 X42.153 Y120.724 E0.01752
G1 X41.690 Y120.412 E0.01752
G1 X41.313 Y120.000 E0.01752
G1 X40.983 Y119.350 E0.02284
G1 X40.865 Y118.631 E0.02284
G1 X40.865 Y61.536 E1.79020
G1 X40.936 Y60.982 E0.01752
G1 X41.133 Y60.463 E0.01740
G1 X41.444 Y60.003 E0.01740
G1 X41.854 Y59.629 E0.01740
G1 X42.453 Y59.325 E0.02108
M204 S1250
; printing object Case com modelo de place 1 v2 - tampa.stl id:0 copy 0
G1 E-2.24000 F4200.000
;WIPE_START
G1 F5760.000
G1 X43.226 Y59.181 E-0.54435
G1 X43.757 Y59.180 E-0.36765
;WIPE_END
G1 E-0.04800 F4200.000
G1 Z0.400 F7200.000
G1 X65.113 Y86.192
G1 Z0.200
G1 E3.20000 F2400.000
M204 S800
;TYPE:Support material
G1 F1200.000
G1 X65.113 Y61.558 E0.77236
M73 P0 R71
G1 X64.359 Y61.558 E0.02365
G1 X64.359 Y86.022 E0.76704
G1 X63.604 Y86.022 E0.02365
G1 X63.604 Y61.558 E0.76704
G1 X62.850 Y61.558 E0.02365
G1 X62.850 Y86.022 E0.76704
G1 X62.096 Y86.022 E0.02365
G1 X62.096 Y61.558 E0.76704
G1 X61.342 Y61.558 E0.02365
G1 X61.342 Y86.022 E0.76704
G1 X60.588 Y86.022 E0.02365
G1 X60.588 Y61.558 E0.76704
G1 X59.834 Y61.558 E0.02365
G1 X59.834 Y86.022 E0.76704
G1 X59.079 Y86.022 E0.02365
G1 X59.079 Y61.558 E0.76704
M73 P1 R71
G1 X58.325 Y61.558 E0.02365
G1 X58.325 Y118.441 E1.78353
G1 X57.571 Y118.441 E0.02365
G1 X57.571 Y61.558 E1.78353
G1 X56.817 Y61.558 E0.02365
G1 X56.817 Y118.441 E1.78353
G1 X56.063 Y118.441 E0.02365
G1 X56.063 Y61.558 E1.78353
G1 X55.309 Y61.558 E0.02365
G1 X55.309 Y118.441 E1.78353
G1 X54.555 Y118.441 E0.02365
G1 X54.555 Y61.558 E1.78353
G1 X53.800 Y61.558 E0.02365
G1 X53.800 Y118.441 E1.78353
G1 X53.046 Y118.441 E0.02365
G1 X53.046 Y61.558 E1.78353
G1 X52.292 Y61.558 E0.02365
G1 X52.292 Y118.441 E1.78353
G1 X51.538 Y118.441 E0.02365
G1 X51.538 Y61.558 E1.78353
G1 X50.784 Y61.558 E0.02365
G1 X50.784 Y118.441 E1.78353
G1 X50.030 Y118.441 E0.02365
G1 X50.030 Y61.558 E1.78353
G1 X49.275 Y61.558 E0.02365
G1 X49.275 Y118.441 E1.78353
G1 X48.521 Y118.441 E0.02365
G1 X48.521 Y61.558 E1.78353
G1 X47.767 Y61.558 E0.02365
G1 X47.767 Y118.441 E1.78353
M73 P2 R71
G1 X47.013 Y118.441 E0.02365
G1 X47.013 Y61.558 E1.78353
G1 X46.259 Y61.558 E0.02365
G1 X46.259 Y118.441 E1.78353
G1 X45.505 Y118.441 E0.02365
G1 X45.505 Y61.558 E1.78353
M73 P2 R70
G1 X44.750 Y61.558 E0.02365
G1 X44.750 Y118.441 E1.78353
G1 X43.996 Y118.441 E0.02365
G1 X43.996 Y61.558 E1.78353
G1 X43.242 Y61.558 E0.02365
G1 X43.242 Y118.611 E1.78885
M204 S1250
G1 X59.079 Y103.071 F7200.000
M204 S800
G1 F1200.000
G1 X59.079 Y118.441 E0.48194
G1 X59.834 Y118.441 E0.02365
G1 X59.834 Y103.240 E0.47662
G1 X60.588 Y103.240 E0.02365
G1 X60.588 Y118.441 E0.47662
G1 X61.342 Y118.441 E0.02365
G1 X61.342 Y103.240 E0.47662
G1 X62.096 Y103.240 E0.02365
G1 X62.096 Y118.441 E0.47662
G1 X62.850 Y118.441 E0.02365
G1 X62.850 Y103.240 E0.47662
G1 X63.604 Y103.240 E0.02365
G1 X63.604 Y118.441 E0.47662
G1 X64.359 Y118.441 E0.02365
G1 X64.359 Y103.240 E0.47662
G1 X65.113 Y103.240 E0.02365
G1 X65.113 Y118.441 E0.47662
G1 X65.867 Y118.441 E0.02365
G1 X65.867 Y103.240 E0.47662
G1 X66.621 Y103.240 E0.02365
G1 X66.621 Y118.441 E0.47662
G1 X67.375 Y118.441 E0.02365
G1 X67.375 Y103.240 E0.47662
G1 X68.129 Y103.240 E0.02365
G1 X68.129 Y118.441 E0.47662
G1 X68.884 Y118.441 E0.02365
G1 X68.884 Y103.240 E0.47662
G1 X69.638 Y103.240 E0.02365
G1 X69.638 Y118.441 E0.47662
G1 X70.392 Y118.441 E0.02365
G1 X70.392 Y103.240 E0.47662
G1 X71.146 Y103.240 E0.02365
G1 X71.146 Y118.441 E0.47662
G1 X71.900 Y118.441 E0.02365
G1 X71.900 Y103.240 E0.47662
G1 X72.654 Y103.240 E0.02365
G1 X72.654 Y118.441 E0.47662
G1 X73.409 Y118.441 E0.02365
G1 X73.409 Y103.240 E0.47662
G1 X74.163 Y103.240 E0.02365
G1 X74.163 Y118.441 E0.47662
G1 X74.917 Y118.441 E0.02365
G1 X74.917 Y103.240 E0.47662
G1 X75.671 Y103.240 E0.02365
G1 X75.671 Y118.441 E0.47662
G1 X76.425 Y118.441 E0.02365
G1 X76.425 Y103.240 E0.47662
G1 X77.179 Y103.240 E0.02365
G1 X77.179 Y118.441 E0.47662
G1 X77.933 Y118.441 E0.02365
G1 X77.933 Y103.240 E0.47662
G1 X78.688 Y103.240 E0.02365
G1 X78.688 Y118.441 E0.47662
G1 X79.442 Y118.441 E0.02365
G1 X79.442 Y103.240 E0.47662
G1 X80.196 Y103.240 E0.02365
G1 X80.196 Y118.441 E0.47662
G1 X80.950 Y118.441 E0.02365
G1 X80.950 Y103.240 E0.47662
M73 P3 R70
G1 X81.704 Y103.240 E0.02365
G1 X81.704 Y118.441 E0.47662
G1 X82.458 Y118.441 E0.02365
G1 X82.458 Y103.240 E0.47662
G1 X83.213 Y103.240 E0.02365
G1 X83.213 Y118.441 E0.47662
G1 X83.967 Y118.441 E0.02365
G1 X83.967 Y103.240 E0.47662
G1 X84.721 Y103.240 E0.02365
G1 X84.721 Y118.441 E0.47662
G1 X85.475 Y118.441 E0.02365
G1 X85.475 Y103.240 E0.47662
G1 X86.229 Y103.240 E0.02365
G1 X86.229 Y118.441 E0.47662
G1 X86.983 Y118.441 E0.02365
G1 X86.983 Y103.240 E0.47662
G1 X87.738 Y103.240 E0.02365
G1 X87.738 Y118.441 E0.47662
G1 X88.492 Y118.441 E0.02365
G1 X88.492 Y103.240 E0.47662
G1 X89.246 Y103.240 E0.02365
G1 X89.246 Y118.441 E0.47662
G1 X90.000 Y118.441 E0.02365
G1 X90.000 Y103.240 E0.47662
G1 X90.754 Y103.240 E0.02365
G1 X90.754 Y118.441 E0.47662
G1 X91.508 Y118.441 E0.02365
G1 X91.508 Y103.240 E0.47662
G1 X92.262 Y103.240 E0.02365
G1 X92.262 Y118.441 E0.47662
G1 X93.017 Y118.441 E0.02365
G1 X93.017 Y103.240 E0.47662
G1 X93.771 Y103.240 E0.02365
G1 X93.771 Y118.441 E0.47662
G1 X94.525 Y118.441 E0.02365
G1 X94.525 Y103.240 E0.47662
G1 X95.279 Y103.240 E0.02365
G1 X95.279 Y118.441 E0.47662
G1 X96.033 Y118.441 E0.02365
G1 X96.033 Y103.240 E0.47662
G1 X96.787 Y103.240 E0.02365
G1 X96.787 Y118.441 E0.47662
G1 X97.542 Y118.441 E0.02365
G1 X97.542 Y103.240 E0.47662
G1 X98.296 Y103.240 E0.02365
G1 X98.296 Y118.441 E0.47662
G1 X99.050 Y118.441 E0.02365
G1 X99.050 Y103.240 E0.47662
G1 X99.804 Y103.240 E0.02365
G1 X99.804 Y118.441 E0.47662
G1 X100.558 Y118.441 E0.02365
G1 X100.558 Y103.240 E0.47662
G1 X101.312 Y103.240 E0.02365
G1 X101.312 Y118.441 E0.47662
G1 X102.067 Y118.441 E0.02365
G1 X102.067 Y103.240 E0.47662
G1 X102.821 Y103.240 E0.02365
G1 X102.821 Y118.441 E0.47662
G1 X103.575 Y118.441 E0.02365
G1 X103.575 Y103.240 E0.47662
M73 P3 R69
G1 X104.329 Y103.240 E0.02365
G1 X104.329 Y118.441 E0.47662
G1 X105.083 Y118.441 E0.02365
G1 X105.083 Y103.240 E0.47662
G1 X105.837 Y103.240 E0.02365
G1 X105.837 Y118.441 E0.47662
G1 X106.591 Y118.441 E0.02365
G1 X106.591 Y103.240 E0.47662
G1 X107.346 Y103.240 E0.02365
G1 X107.346 Y118.441 E0.47662
G1 X108.100 Y118.441 E0.02365
G1 X108.100 Y103.240 E0.47662
G1 X108.854 Y103.240 E0.02365
G1 X108.854 Y118.441 E0.47662
G1 X109.608 Y118.441 E0.02365
G1 X109.608 Y103.240 E0.47662
G1 X110.362 Y103.240 E0.02365
G1 X110.362 Y118.441 E0.47662
G1 X111.116 Y118.441 E0.02365
G1 X111.116 Y103.240 E0.47662
G1 X111.871 Y103.240 E0.02365
G1 X111.871 Y118.441 E0.47662
G1 X112.625 Y118.441 E0.02365
G1 X112.625 Y103.240 E0.47662
G1 X113.379 Y103.240 E0.02365
G1 X113.379 Y118.441 E0.47662
G1 X114.133 Y118.441 E0.02365
G1 X114.133 Y103.240 E0.47662
G1 X114.887 Y103.240 E0.02365
G1 X114.887 Y118.441 E0.47662
G1 X115.641 Y118.441 E0.02365
G1 X115.641 Y103.240 E0.47662
G1 X116.396 Y103.240 E0.02365
G1 X116.396 Y118.441 E0.47662
G1 X117.150 Y118.441 E0.02365
G1 X117.150 Y103.240 E0.47662
G1 X117.904 Y103.240 E0.02365
G1 X117.904 Y118.441 E0.47662
G1 X118.658 Y118.441 E0.02365
G1 X118.658 Y103.240 E0.47662
G1 X119.412 Y103.240 E0.02365
G1 X119.412 Y118.441 E0.47662
G1 X120.166 Y118.441 E0.02365
G1 X120.166 Y103.240 E0.47662
G1 X120.921 Y103.240 E0.02365
G1 X120.921 Y118.611 E0.48194
M204 S1250
M73 P4 R69
G1 X136.758 Y118.611 F7200.000
M204 S800
G1 F1200.000
G1 X136.758 Y61.558 E1.78885
G1 X136.004 Y61.558 E0.02365
G1 X136.004 Y118.441 E1.78353
G1 X135.250 Y118.441 E0.02365
G1 X135.250 Y61.558 E1.78353
G1 X134.495 Y61.558 E0.02365
G1 X134.495 Y118.441 E1.78353
G1 X133.741 Y118.441 E0.02365
G1 X133.741 Y61.558 E1.78353
G1 X132.987 Y61.558 E0.02365
G1 X132.987 Y118.441 E1.78353
G1 X132.233 Y118.441 E0.02365
G1 X132.233 Y61.558 E1.78353
G1 X131.479 Y61.558 E0.02365
G1 X131.479 Y118.441 E1.78353
G1 X130.725 Y118.441 E0.02365
G1 X130.725 Y61.558 E1.78353
G1 X129.970 Y61.558 E0.02365
G1 X129.970 Y118.441 E1.78353
G1 X129.216 Y118.441 E0.02365
G1 X129.216 Y112.183 E0.19624
G1 X128.992 Y112.361 E0.00900
G1 X128.623 Y112.558 E0.01309
G1 X128.462 Y112.612 E0.00533
G1 X128.462 Y118.441 E0.18279
G1 X127.708 Y118.441 E0.02365
G1 X127.708 Y112.746 E0.17857
G1 X127.262 Y112.705 E0.01404
G1 X126.954 Y112.616 E0.01006
G1 X126.954 Y118.441 E0.18264
G1 X126.200 Y118.441 E0.02365
G1 X126.200 Y111.976 E0.20272
M204 S1250
G1 E-2.24000 F4200.000
;WIPE_START
G1 F5760.000
G1 X126.200 Y113.293 E-0.91200
;WIPE_END
G1 E-0.04800 F4200.000
G1 Z0.400 F7200.000
G1 X128.462 Y111.183
G1 Z0.200
G1 E3.20000 F2400.000
M204 S800
G1 F1200.000
G1 X128.462 Y109.850 E0.04179
G1 X128.419 Y109.785 E0.00247
G1 X128.260 Y109.635 E0.00683
G1 X128.072 Y109.526 E0.00683
G1 X127.863 Y109.464 E0.00683
G1 X127.708 Y109.455 E0.00487
G1 X127.708 Y111.321 E0.05851
G1 X127.431 Y111.287 E0.00875
G1 X127.231 Y111.200 E0.00683
G1 X127.056 Y111.070 E0.00683
G1 X126.954 Y110.948 E0.00499
G1 X126.954 Y109.570 E0.04322
M204 S1250
G1 E-2.24000 F4200.000
;WIPE_START
G1 F5760.000
G1 X126.954 Y110.886 E-0.91200
;WIPE_END
G1 E-0.04800 F4200.000
G1 Z0.400 F7200.000
G1 X129.216 Y108.812
G1 Z0.200
G1 E3.20000 F2400.000
M204 S800
G1 F1200.000
G1 X129.216 Y61.558 E1.48161
G1 X128.462 Y61.558 E0.02365
G1 X128.462 Y108.164 E1.46128
G1 X128.138 Y108.070 E0.01058
G1 X127.708 Y108.029 E0.01355
G1 X127.708 Y61.558 E1.45705
G1 X126.954 Y61.558 E0.02365
G1 X126.954 Y108.159 E1.46112
M73 P4 R68
G1 X126.777 Y108.217 E0.00585
G1 X126.408 Y108.414 E0.01309
G1 X126.200 Y108.580 E0.00836
G1 X126.200 Y77.768 E0.96608
M73 P5 R68
G1 X125.445 Y77.768 E0.02365
G1 X125.445 Y118.441 E1.27529
G1 X124.691 Y118.441 E0.02365
G1 X124.691 Y77.768 E1.27529
G1 X123.937 Y77.768 E0.02365
G1 X123.937 Y118.441 E1.27529
G1 X123.183 Y118.441 E0.02365
G1 X123.183 Y77.768 E1.27529
G1 X122.429 Y77.768 E0.02365
G1 X122.429 Y118.441 E1.27529
G1 X121.675 Y118.441 E0.02365
G1 X121.675 Y77.768 E1.27529
G1 X120.921 Y77.768 E0.02365
G1 X120.921 Y86.022 E0.25880
G1 X120.166 Y86.022 E0.02365
G1 X120.166 Y77.768 E0.25880
G1 X119.412 Y77.768 E0.02365
G1 X119.412 Y86.022 E0.25880
G1 X118.658 Y86.022 E0.02365
G1 X118.658 Y77.768 E0.25880
G1 X117.904 Y77.768 E0.02365
G1 X117.904 Y86.022 E0.25880
G1 X117.150 Y86.022 E0.02365
G1 X117.150 Y77.768 E0.25880
G1 X116.396 Y77.768 E0.02365
G1 X116.396 Y86.022 E0.25880
G1 X115.641 Y86.022 E0.02365
G1 X115.641 Y77.768 E0.25880
G1 X114.887 Y77.768 E0.02365
G1 X114.887 Y86.022 E0.25880
G1 X114.133 Y86.022 E0.02365
G1 X114.133 Y77.768 E0.25880
G1 X113.379 Y77.768 E0.02365
G1 X113.379 Y86.022 E0.25880
G1 X112.625 Y86.022 E0.02365
G1 X112.625 Y77.768 E0.25880
G1 X111.871 Y77.768 E0.02365
G1 X111.871 Y86.022 E0.25880
G1 X111.116 Y86.022 E0.02365
G1 X111.116 Y77.768 E0.25880
G1 X110.362 Y77.768 E0.02365
G1 X110.362 Y86.022 E0.25880
G1 X109.608 Y86.022 E0.02365
G1 X109.608 Y77.768 E0.25880
G1 X108.854 Y77.768 E0.02365
G1 X108.854 Y86.022 E0.25880
G1 X108.100 Y86.022 E0.02365
G1 X108.100 Y77.768 E0.25880
G1 X107.346 Y77.768 E0.02365
G1 X107.346 Y86.022 E0.25880
G1 X106.591 Y86.022 E0.02365
G1 X106.591 Y77.768 E0.25880
G1 X105.837 Y77.768 E0.02365
G1 X105.837 Y86.022 E0.25880
G1 X105.083 Y86.022 E0.02365
G1 X105.083 Y77.768 E0.25880
G1 X104.329 Y77.768 E0.02365
G1 X104.329 Y86.022 E0.25880
G1 X103.575 Y86.022 E0.02365
G1 X103.575 Y77.768 E0.25880
G1 X102.821 Y77.768 E0.02365
G1 X102.821 Y86.022 E0.25880
G1 X102.067 Y86.022 E0.02365
G1 X102.067 Y77.768 E0.25880
G1 X101.312 Y77.768 E0.02365
G1 X101.312 Y86.022 E0.25880
G1 X100.558 Y86.022 E0.02365
G1 X100.558 Y77.768 E0.25880
G1 X99.804 Y77.768 E0.02365
G1 X99.804 Y86.022 E0.25880
G1 X99.050 Y86.022 E0.02365
G1 X99.050 Y77.768 E0.25880
G1 X98.296 Y77.768 E0.02365
G1 X98.296 Y86.022 E0.25880
G1 X97.542 Y86.022 E0.02365
G1 X97.542 Y77.768 E0.25880
G1 X96.787 Y77.768 E0.02365
G1 X96.787 Y86.022 E0.25880
G1 X96.033 Y86.022 E0.02365
G1 X96.033 Y77.768 E0.25880
G1 X95.279 Y77.768 E0.02365
G1 X95.279 Y86.022 E0.25880
G1 X94.525 Y86.022 E0.02365
G1 X94.525 Y77.768 E0.25880
G1 X93.771 Y77.768 E0.02365
G1 X93.771 Y86.022 E0.25880
G1 X93.017 Y86.022 E0.02365
G1 X93.017 Y77.768 E0.25880
G1 X92.262 Y77.768 E0.02365
G1 X92.262 Y86.022 E0.25880
G1 X91.508 Y86.022 E0.02365
G1 X91.508 Y77.768 E0.25880
G1 X90.754 Y77.768 E0.02365
G1 X90.754 Y86.022 E0.25880
G1 X90.000 Y86.022 E0.02365
G1 X90.000 Y77.768 E0.25880
G1 X89.246 Y77.768 E0.02365
G1 X89.246 Y86.022 E0.25880
G1 X88.492 Y86.022 E0.02365
G1 X88.492 Y77.768 E0.25880
G1 X87.738 Y77.768 E0.02365
G1 X87.738 Y86.022 E0.25880
G1 X86.983 Y86.022 E0.02365
G1 X86.983 Y77.768 E0.25880
G1 X86.229 Y77.768 E0.02365
G1 X86.229 Y86.022 E0.25880
G1 X85.475 Y86.022 E0.02365
G1 X85.475 Y77.768 E0.25880
G1 X84.721 Y77.768 E0.02365
G1 X84.721 Y86.022 E0.25880
G1 X83.967 Y86.022 E0.02365
G1 X83.967 Y77.768 E0.25880
G1 X83.213 Y77.768 E0.02365
G1 X83.213 Y86.022 E0.25880
G1 X82.458 Y86.022 E0.02365
G1 X82.458 Y77.768 E0.25880
G1 X81.704 Y77.768 E0.02365
G1 X81.704 Y86.022 E0.25880
G1 X80.950 Y86.022 E0.02365
G1 X80.950 Y77.768 E0.25880
G1 X80.196 Y77.768 E0.02365
G1 X80.196 Y86.022 E0.25880
G1 X79.442 Y86.022 E0.02365
G1 X79.442 Y77.768 E0.25880
G1 X78.688 Y77.768 E0.02365
G1 X78.688 Y86.022 E0.25880
G1 X77.933 Y86.022 E0.02365
G1 X77.933 Y77.768 E0.25880
G1 X77.179 Y77.768 E0.02365
G1 X77.179 Y86.022 E0.25880
G1 X76.425 Y86.022 E0.02365
G1 X76.425 Y77.768 E0.25880
G1 X75.671 Y77.768 E0.02365
G1 X75.671 Y86.022 E0.25880
G1 X74.917 Y86.022 E0.02365
G1 X74.917 Y77.768 E0.25880
G1 X74.163 Y77.768 E0.02365
G1 X74.163 Y86.022 E0.25880
G1 X73.409 Y86.022 E0.02365
G1 X73.409 Y77.768 E0.25880
G1 X72.654 Y77.768 E0.02365
G1 X72.654 Y86.022 E0.25880
G1 X71.900 Y86.022 E0.02365
G1 X71.900 Y77.768 E0.25880
M73 P6 R68
G1 X71.146 Y77.768 E0.02365
G1 X71.146 Y86.022 E0.25880
G1 X70.392 Y86.022 E0.02365
G1 X70.392 Y77.768 E0.25880
G1 X69.638 Y77.768 E0.02365
G1 X69.638 Y86.022 E0.25880
G1 X68.884 Y86.022 E0.02365
G1 X68.884 Y77.768 E0.25880
G1 X68.129 Y77.768 E0.02365
G1 X68.129 Y86.022 E0.25880
